X:1
T:Deidre’s Lamentation for the Sons of Usnoth
M:3/4
L:1/8
R:Air
Q:”Very Slow”
B:Smollet Holden - Collection of favourite Irish Airs (London, c. 1841; p. 8)
Z:AK/Fiddler’s Companion
K:G
GA|B3A GE|D>E G2 GA/B/|c3 c BG|AGEDEG|A4:|
|:Bc|d2 ge dB|AG/E/ {E}D2 DE|G>AGE DE|G>ABG TA2|G4:|]

